img/tours/moon.svg

<svg width="20" height="20" viewBox="0 0 20 20" fill="none" xmlns="http://www.w3.org/2000/svg">
<path id="icon/moon" d="M19.5272 11.382C19.3228 11.3307 19.1183 11.382 18.9394 11.5103C18.2748 12.0745 17.5081 12.5362 16.6646 12.844C15.8723 13.1518 15.0033 13.3057 14.0831 13.3057C12.0128 13.3057 10.1215 12.4593 8.76681 11.0999C7.41217 9.74052 6.56872 7.84251 6.56872 5.76497C6.56872 4.89291 6.72207 4.0465 6.97767 3.27704C7.25882 2.45628 7.66777 1.71247 8.20451 1.07125C8.43454 0.789119 8.38343 0.378739 8.10227 0.147901C7.92336 0.0196574 7.71888 -0.0316401 7.51441 0.0196573C5.34188 0.609578 3.4505 1.91766 2.09586 3.66177C0.792336 5.38024 0 7.50908 0 9.84311C0 12.6388 1.12461 15.178 2.96487 17.0247C4.80513 18.8715 7.3355 20 10.1215 20C12.4729 20 14.6454 19.1792 16.3835 17.8199C18.147 16.4348 19.425 14.4599 19.9618 12.2028C20.0895 11.8181 19.8851 11.459 19.5272 11.382ZM15.6167 16.7426C14.1342 17.9225 12.2429 18.6406 10.1726 18.6406C7.74444 18.6406 5.54635 17.6403 3.96168 16.0501C2.37701 14.4599 1.3802 12.2541 1.3802 9.81746C1.3802 7.79122 2.04474 5.94451 3.1949 4.45688C3.98724 3.43094 4.98405 2.58453 6.13421 1.99461C6.00642 2.27674 5.87862 2.55888 5.77638 2.86666C5.44411 3.79002 5.29076 4.76467 5.29076 5.79062C5.29076 8.22724 6.28757 10.4587 7.87224 12.0489C9.45691 13.6391 11.6806 14.6394 14.1087 14.6394C15.1822 14.6394 16.2045 14.4599 17.1502 14.1008C17.4825 13.9726 17.8148 13.8443 18.1215 13.6904C17.5081 14.8703 16.6646 15.9219 15.6167 16.7426Z" fill="white"/>
</svg>

<svg width="20" height="20" fill="none" xmlns="http://www.w3.org/2000/svg"><path d="M19.527 11.382a.7.7 0 0 0-.588.128 7.495 7.495 0 0 1-2.274 1.334 7.1 7.1 0 0 1-2.582.462A7.503 7.503 0 0 1 8.767 11.1a7.556 7.556 0 0 1-2.198-5.335c0-.872.153-1.718.409-2.488.28-.82.69-1.565 1.227-2.206a.656.656 0 0 0-.103-.923.701.701 0 0 0-.588-.128C5.342.61 3.45 1.918 2.096 3.662A10.18 10.18 0 0 0 0 9.843c0 2.796 1.125 5.335 2.965 7.182A10.066 10.066 0 0 0 10.12 20c2.352 0 4.524-.82 6.263-2.18a10.118 10.118 0 0 0 3.578-5.617c.128-.385-.077-.744-.435-.821Zm-3.91 5.36a8.715 8.715 0 0 1-5.444 1.899c-2.429 0-4.627-1-6.211-2.59A8.817 8.817 0 0 1 1.38 9.816c0-2.026.665-3.872 1.815-5.36a8.795 8.795 0 0 1 2.94-2.462c-.129.282-.256.564-.359.872-.332.923-.485 1.898-.485 2.924 0 2.436.997 4.668 2.581 6.258a8.816 8.816 0 0 0 6.237 2.59 8.53 8.53 0 0 0 3.041-.538c.333-.128.665-.257.972-.41a9.324 9.324 0 0 1-2.505 3.052Z" fill="#fff"/></svg>
